X:48
T:Minnie Looney's Slide
C:Terence "Cuz" Teahan
B:Terry "Cuz" Teahan "Sliabh Luachra on Parade" 1980
Z:Patrick Cavanagh
M:12/8
L:1/8
R:Slide
K:D
fg | aga fef d2A d2f | e2c e3 f2d f2g | 
aga fef d2A d2c | BcB ABc d3 d2 :| 
f | edc e2e fed f2a | gfe g2e fed f2g | 
aga fef d2A d2c | BcB ABc d3 d2 :|| 

